X:24
T:Money in Both Pockets
C:Trad., Irish
S:Petrie's Collection of Strathspey Reels and Country Dances &c., 1790
Z:Steve Wyrick , 2/28/04
N:Petrie's First Collection, page 11
L:1/8
M:6/8
K:D
   A|d2F         FEF|ABA      AGF| d2F TFEF | ABA  gfe |
     d2F         FEF|ABA      AGF| EFE  EFA | BcTB B2 :|
 |:A|dfa         afd|cea      ecA| dfa  afd | g3   f2g |
     agf         bag|agf      ede| fdB  AFA | BcB  B2 :|
z|:  dcd         dAF|ABA      AGF|Tdcd  dAF | Aaf  gfe |
%Petrie omitted the 8th rest at the beginning of the above line -SW
     dcd     dAF    |ABA      AGF| E2E  EFA | BcB  B2z:|
%Petrie omitted the 8th rest at the end of the above line -SW
 |: Tdcd     afd    | cea     ecA|Tdcd  afd |Tgfg  f2g |
   (f/g/af) (g/a/bg)|(f/g/af) ede|fdB   AFA | BcB  B2z:|
%Petrie omitted the 8th rest at the end of the above line -SW
